svg/24/star--filled.svg

<svg width="24" height="24" viewBox="0 0 24 24" fill="currentColor" xmlns="http://www.w3.org/2000/svg"><path d="M11.1033 2.56134C11.4701 1.8181 12.53 1.81809 12.8968 2.56134L15.3159 7.46308L20.7253 8.24911C21.5455 8.36829 21.8731 9.37627 21.2795 9.9548L17.3653 13.7703L18.2893 19.1578C18.4294 19.9747 17.572 20.5977 16.8384 20.212L12.0001 17.6683L7.16175 20.212C6.42812 20.5977 5.57069 19.9747 5.7108 19.1578L6.63483 13.7703L2.72056 9.9548C2.12704 9.37627 2.45455 8.36829 3.27477 8.24911L8.68416 7.46308L11.1033 2.56134Z"/></svg>

<svg xmlns="http://www.w3.org/2000/svg" width="24" height="24" fill="currentColor" viewBox="0 0 24 24">
  <path d="M11.103 2.561a1 1 0 0 1 1.794 0l2.419 4.902 5.41.786a1 1 0 0 1 .553 1.706l-3.914 3.815.924 5.388a1 1 0 0 1-1.45 1.054L12 17.668l-4.838 2.544a1 1 0 0 1-1.451-1.054l.924-5.388L2.72 9.955a1 1 0 0 1 .554-1.706l5.41-.786 2.418-4.902Z"/>
</svg>
